!!!COM: Josephine Lang
!!!CNT: Deutsch
!!!TXO: Deutsch
!!!OTL: "Gedenke mein"
!!!LYR: Reinhold
!!!OPS: Op. 14
!!!ONM: No. 4
!!!ENC: Alyona Dzerbina, edited by LVH
!!!YOR: Josephine Lang: Selected Songs
!!!YOR: Da Capo Press, 1982
!!!ODT: 1840/
!!NB: Vocal melody only encoded.
**kern	**text
*staff1	*staff1
*clefG2	*
*k[b-e-]	*
*met(C)	*
*M4/4	*
*MM[Andante]	*
1r	.
=2	=2
1r	.
=3	=3
1r	.
=4	=4
4r	.
8r	.
{8d	{Ge-
4.d	-den-
8d	-ke
=5	=5
4f	mein!
8r	.
8f	die
8.g	lie-
16g	-ben
8dd	Au-
8cc	-gen
=6	=6
4b-	len-
4a	-ke
4b-	in
8g	stil-
8e-	-len
=7	=7
4.b-	Na2ch-
8d	-ten
4.f	oft
8c	nach
=8	=8
2d}	mir!}
2r	.
=9	=9
1r	.
=10	=10
4r	.
8r	.
{(8d	{Ich
4.d	den-
8d	-ke
=11	=11
4d	dein,
8b-)	|
8b-	wenn
8b-	ich
8b-	des
8.b-	Lieb-
16a	-sten
=12	=12
4a	den-
4g}	-ke,
8r	.
{(8g	und
8.g	was
16f	ich
=13	=13
4en	schaf-
4g	-fe
4.cc	weih'
8g	ich
=14	=14
8a)	dir,
8a	und
2dd	was
4g	ich
=15	=15
(4cc	schaf-
8ff)	|
8a	-fe
(4b-	weih'
8.a)	|
16g	ich
=16	=16
2f}	dir!}
2r	.
=17	=17
1r	.
=18	=18
4r	.
8r	.
{8d	{Ge-
4.d	-den-
8d	-ke
=19	=19
4e-	mein!
8r	.
8e-	wenn
8.e-	dir
16e-	die
8dd	Thra2-
8cc	-nen
=20	=20
4b-	kom-
4d	-men,
4a	dir
8.f#	weint
16g	mein
=21	=21
4.a	gan-
8a	-zes
(4b-	Le-
8.a)	|
16g	-ben
=22	=22
4a}	nach!}
8r	.
{8b-	{So
4.b-	rasch
8b-	ge-
=23	=23
4cc	-ge-
4b-	-ben,
8.b-	ra-
16b-	-scher
8a	noch
8b-	ge-
=24	=24
4cc-	-nom-
4b-	-men,
4ee-	und
8.dd	Lust
16ccn	und
=25	=25
4b-	Leid
8r	.
8b-	ein
(4b-	ein-
8.a)	|
16g	-zig
=26	=26
2dd}	Ach!}
2r	.
=27	=27
1r	.
=28	=28
4r	.
8r	.
{(8d	{Ge-
4d	-den-
8B-	|
8c	-ke
=29	=29
4d	mein,
8r	.
8d	im
8.d	heis-
16b-	-sen
8b-	Kampf
8cc	des
=30	=30
4dd	Le-
4a	-bens,
4b-	und
8.a	denk',
16g)	dass
=31	=31
4.f	er
8d	auch
4.f	mich
8c	ver-
=32	=32
2d}	-zehrt.}
2r	.
=33	=33
2r	.
8r	.
{8g	{Du
8.a	weisst
16f	es
=34	=34
4dd	ja,
8r	.
8dd	wir
8.dd	rin-
16cc	-gen
8cc	nicht
8b-	ver-
=35	=35
(8a	-ge-
8ee-)	|
2ee-}	-bens:}
8r	.
{8e-	{so
=36	=36
4.d	wer-
8d	-den
8.g	wir
16g	ein-
8f	-an-
8f	-der
=37	=37
2.b-}	werth,}
{4b-	{so
=38	=38
4.ee-	wer-
8dd	-den
8.dd	wir
16cc	ein-
8b-	-an-
8a	-der
=39	=39
2.b-}	werth,}
{(4b-	{so
=40	=40
4.ee-	wer-
8dd	-den
8dd	wir
8cc	ein-
8b-	-an-
8a)	-der
=41	=41
2b-}	werth.)
2r	.
=42	=42
2r	.
8r	.
{8g	{Ge-
8.a	-den-
16f	-ke
=43	=43
(2.dd	mein!
8b-	|
8f	Ge-
=44	=44
2.d	-den-
4f	-ke
=45	=45
2B-)}	mein!}
2r	.
=46	=46
1r	.
=47	=47
1r	.
=48	=48
4r	.
8r	.
{8d	{Ge-
4.d	-den-
8d	-ke
=49	=49
4.f	mein!
8f	wenn
8.g	Freu-
16g	-de
8dd	macht
8cc	dich
=50	=50
4b-	La2-
4a	-cheln
4b-	und
8.g	sen-
16e-	-de
=51	=51
4.b-	mir
8d	in
4.f	Traum
8c	dein
=52	=52
2d}	Bild!}
2r	.
=53	=53
1r	.
=54	=54
2r	.
{(4.d	{Als
8d	ein
=55	=55
4d	En-
4b-	-gel
8b-	mir
8b-	die
8.b-	Stirn
16a)	zu
=56	=56
4a	Fa2-
4g}	-cheln,}
8r	.
{8g	{wenn
8.g	mir
16f	die
=57	=57
4en	Aus-
4g	-sicht
4.cc	wird
8a	zu
=58	=58
8a	wild,
8a	wenn
2dd	mir
4g	die
=59	=59
(4cc	Aus-
8ff)	|
8a	-sicht
(4b-	wird
8.a)	|
16g	zu
=60	=60
4f}	wild!}
4r	.
2r	.
=61	=61
1r	.
=62	=62
4r	.
8r	.
{(8d	{Ge-
4.d	-den-
8d	-ke
=63	=63
4e-)	mein!
8r	.
8e-	ver-
8e-	-spricht
8e-	es,
8.dd	treu-
16cc	-e
=64	=64
4b-	See-
4d}	-le,}
{4a	{Sieh'
8.f#	als
16g	ein
=65	=65
*k[f#c#]	*
4.a	scho2-
8b	-ner
4.a	Stern
8e	mich
=66	=66
2a}	an,}
{4.b-	{dem
8b-	ich
=67	=67
*k[b-e-]	*
4b-	darf
8b-	an-
8b-	-ver-
8b-	-trau-
8b-	-en
8a	was
8b-	mir
=68	=68
4cc-	feh-
4b-}	-let,}
{4ee-	{wenn
8.dd	ich
16ccn	mir
=69	=69
4b-	selbst
8r	.
8b-	nicht
(4b-	hel-
8a)	|
8g	-fen
=70	=70
2dd}	kann!}
2r	.
=71	=71
1r	.
=72	=72
4r	.
8r	.
{8d	{Ge-
4.d	-den-
8d	-ke
=73	=73
4f	mein!
8r	.
8f	ich
8g	weiss,
16r	.
16g	du
8dd	wirst
8cc	es
=74	=74
4b-	hal-
4a	-ten;
4b-	so
8.g	sind
16e-	wir
=75	=75
4.b-	nim-
8d	-mer-
4.f	-mehr
8c	ge-
=76	=76
2d}	-trennt!}
2r	.
=77	=77
4r	.
8r	.
{8f	{Die
8g	Flam-
8g	-me
8.a	eint'
16f	sich
=78	=78
4dd	noch,
8r	.
8dd	die
8dd	jetzt
8cc	|
8r	.
8b-	ver-
=79	=79
(8a	-ge-
8ee-)	|
2ee-}	-bens}
8r	.
{8e-	{in
=80	=80
4d	zwei
8r	.
8d	ver-
8g	-wand-
8g	-ten
8f	Her-
8f	-zen
=81	=81
(2.b-	brennt,
4b-	die
=82	=82
4.ee-	Flam-
8dd	-me
8dd	eint'
8cc	|
8b-	sich
8a	|
=83	=83
2.b-	noch,
8.b-	die
16b-)	in
=84	=84
4.ee-	zwei
8dd	ver-
8dd	-wand-
8cc	-ten
8b-	Her-
8a	-zen
=85	=85
2b-}	brennt!}
2r	.
=86	=86
2r	.
8r	.
{(8g	{Ge-
8a	-den-
8f)	-ke
=87	=87
(2.dd	mein!
8.b-)	|
16f	Ge-
=88	=88
2.d	-den-
4f	-ke
=89	=89
2B-}	mein!}
2r	.
=90	=90
1r	.
=91	=91
1r	.
=92	=92
1r	.
==	==
*-	*-
